resources/svg/ms-word.svg

<svg width="15" height="15" viewBox="0 0 15 15" fill="none" xmlns="http://www.w3.org/2000/svg">
<path d="M2.01489 5.62126L3.01489 9.62126C3.06289 9.81326 3.21962 9.95888 3.41463 9.99265C3.60963 10.0264 3.80621 9.94201 3.91599 9.77734L4.49996 8.90138L5.08394 9.77734C5.19372 9.94201 5.3903 10.0264 5.5853 9.99265C5.7803 9.95888 5.93704 9.81326 5.98503 9.62126L6.98503 5.62126L6.01489 5.37872L5.28902 8.28219L4.91599 7.72264C4.82326 7.58354 4.66714 7.49999 4.49996 7.49999C4.33279 7.49999 4.17667 7.58354 4.08394 7.72264L3.7109 8.28219L2.98503 5.37872L2.01489 5.62126Z" fill="black"/>
<path fill-rule="evenodd" clip-rule="evenodd" d="M3.5 0C2.67157 0 2 0.671573 2 1.5V3H1.5C0.671573 3 0 3.67157 0 4.5V10.5C0 11.3284 0.671573 12 1.5 12H2V13.5C2 14.3284 2.67157 15 3.5 15H13.5C14.3284 15 15 14.3284 15 13.5V1.5C15 0.671573 14.3284 0 13.5 0H3.5ZM1.5 4C1.22386 4 1 4.22386 1 4.5V10.5C1 10.7761 1.22386 11 1.5 11H7.5C7.77614 11 8 10.7761 8 10.5V4.5C8 4.22386 7.77614 4 7.5 4H1.5Z" fill="black"/>
</svg>

<svg viewBox="0 0 15 15" fill="none" xmlns="http://www.w3.org/2000/svg" fill="currentColor"><path d="M2.015 5.621l1 4a.5.5 0 00.901.156l.584-.876.584.876a.5.5 0 00.901-.156l1-4-.97-.242-.726 2.903-.373-.56a.5.5 0 00-.832 0l-.373.56-.726-2.903-.97.242z" fill="currentColor"/><path fill-rule="evenodd" clip-rule="evenodd" d="M3.5 0A1.5 1.5 0 002 1.5V3h-.5A1.5 1.5 0 000 4.5v6A1.5 1.5 0 001.5 12H2v1.5A1.5 1.5 0 003.5 15h10a1.5 1.5 0 001.5-1.5v-12A1.5 1.5 0 0013.5 0h-10zm-2 4a.5.5 0 00-.5.5v6a.5.5 0 00.5.5h6a.5.5 0 00.5-.5v-6a.5.5 0 00-.5-.5h-6z" fill="currentColor"/></svg>
